!!!OTL: 528a. Der Ueberlaeufer.
!!!ARE: Europa, Mitteleuropa, Deutschland, Hessen, Wetterau
!!!SCT: E0528A
!!!TXL: @@DE
!!!YEM: Copyright 1995, estate of Helmut Schaffrath.
**kern	**text
*ICvox	*
*M6/8	*
*k[b-]	*
*F:	*
=1	=1
!LO:TX:a:t=Mäßig.	!
!LO:TX:a:t=Aus der Wetterau 1892. Aehnlich aus Lothringen 1845.	!
{4f	Jn
8a	den
4f	Gar-
8a	-ten
=2	=2
4f	wolln
8a	wir
4cc	ge-
8b-}	-hen,
=3	=3
{4e	wo
8g	die
4g	ro-
8g	-then
=4	=4
8g\L	Rös-
8ccJ	.
8b-	-lein
4b-/	ſte-
8a}	-hen,
=5	=5
{(8f	blühen
8a)	.
8cc	die
4cc	Ro-
8a	-ſen
=6	=6
4b-	noch
8dd	ſo
4.ff}	ſchön,
=7	=7
{4dd	brech_ich
8ff	mir
4cc	ei-
8a	-ne
=8	=8
8ccL	wo
8b-J	.
8g	ſie
4f	ſteht.
8r}	.
=9	=9
{(8f	blühen
8a)	.
8cc	die
4cc	Ro-
8a	-ſen
=10	=10
4b-	noch
8dd	ſo
4.ff}	ſchön,
=11	=11
{4dd	brech_ich
8ff	mir
4cc	ei-
8a	-ne
=12	=12
8ccL	wo
8b-J	.
8g	ſie
4f	ſteht.
8r}	.
==	==
!!!AGN: Liebes - Lied
!!!ONB: ESAC (Essen Associative Code) Database: ERK1
!!!AMT: compound duple
!!!AIN: vox
!!!EED: Helmut Schaffrath
!!!EEV: 1.0
!!!GTL: Liebeslieder [Neuere (aus dem 18. bis 19. Jahrh.) - Liebeslust]
!!!URL-scan: https://rosdok.uni-rostock.de/mcrviewer/recordIdentifier/rosdok_ppn745177662/iview2/phys_0356.iview2?x=-495.639162561577&y=125.505988428602&scale=0.46294184720638526&rotation=0&layout=singlePageLayout
!!!ENC: Anna Maria Matuszewska
!!!EEV: 2024/10/12
*-	*-
